img/rock.svg

<svg xmlns="http://www.w3.org/2000/svg" viewBox="0 0 998.946 1053.75" xml:space="preserve" stroke="#000" fill="none" stroke-linecap="round" stroke-linejoin="round"><path d="M561.4 182.6c-6.7-13.4-5.5-30.4 3.1-42.7 6 19.7 13.1 40.9 30.3 52.4 9.6 6.5 21.4 9 32.9 10.6 57.1 7.8 116.9-5.1 165.6-35.8 25.8-16.3 50.8-44 43.2-73.5-6.4-25.1-34.4-39-60.2-40.5-25.9-1.5-51.4 5.9-77.2 7.5-42.9 2.8-86.7-11.1-120.2-38-4 4.3-8.1 8.7-12.1 13.1-2.8-5.6-5.7-11.2-8.6-16.9-11.9-.2-23.8 3.2-33.8 9.6C536.7 45 544.5 65 546.7 85.6c-19.3-10.1-33.8-29.1-38.4-50.4-70.2 51.3-142.7 99.4-217.2 144.1-54.4 32.6-69.8 102.9-81.2 165.3-15.6 86.1-33.2 172.4-65 253.9C113.2 680.1 66.4 757.3 0 814.3l39.6-55.2C63.3 726 87 692.8 106 656.9c64.6-122.4 69.4-266.8 110.5-398.9 6.3-20.5 13.9-41.1 27.7-57.5 11.1-13.3 25.8-23 40.2-32.5 73.3-48.3 146.5-96.6 219.8-144.9 10.3-6.9 20.9-13.8 33-16.6C565.8 0 593.5 18 620.4 29.8c40 17.5 85.6 22 128.2 12.5 33.2-7.4 70.2 7.5 88.8 35.9 18.7 28.4 17.9 68.3-2 95.9 36.4-7.6 76.7 9.6 96.4 41.2 19.8 31.6 17.7 75.3-5 104.8 35.9 1.4 64.1 37.1 65.7 73 1.7 36-17.9 70.1-43.7 95.2 32.2 7.9 50.1 45.8 44.7 78.4-5.4 32.7-28.6 59.7-54.7 80.1-26 20.4-55.7 36-81.5 56.7-34.1 27.4-60.6 63.1-88.8 96.6-87.5 104-195.5 190.7-315.9 253.7 43.1-52.8 107.6-82.5 162.1-123.3 34.4-25.7 64.9-55.9 95.4-86.1 13.8-13.7 28-27.8 36-45.6 7.9-17.7 8.5-40.2-3.8-55.3-13.8-17-38-19.6-59-25.8-20.9-6.2-43.6-23.6-38.8-45 4.2-18.3-20-27.9-36.7-36.5-41.5-21.6-52.4-85.4-20.3-119.5-14.5-10.3-29.1-20.7-43.6-31.1-11.6 55.2-17.1 111.6-16.5 168 .4 29.1.8 62.2-20.5 82 8.9-114.5 17.9-229.1 26.9-343.7-7 42.3-14 84.6-20.9 126.9-16.1-27.4-2-61.7.3-93.4 4.8-64.5-40.9-121.6-89.9-164 31.7 18.6 71.4-.7 102.8-19.7 21.7-13.1 46.8-36.4 35.3-59.1m51 193.5c6.4 4.3 11.1 10.7 15.3 17.2 8.4 13.2 15.4 27.5 20.5 42.4 2.3 6.6 4.3 13.7 3.1 20.7-1.1 7-6.2 13.8-13.2 14.7 88.9-11.5 167.6-62 239.1-116.1 9.9-7.4 19.8-15.1 27.6-24.7 14.6-18 20.7-41.2 26.4-63.7 1.7-6.3 3.3-12.9 2.3-19.3-1.1-6.4-4.6-12-8.1-17.4-5.2-8-10.7-15.8-16.4-23.4-3.8-5.1-7.9-10.2-13.4-13.5-7.1-4.2-15.7-4.8-24-5.3-14.6-.9-29.9-1.6-42.9 5.1-7.3 3.8-13.3 9.7-19.2 15.4-20.6 20.4-41.3 40.7-61.9 61.1-9.7 9.5-19.5 19.2-31 26.6-11.3 7.3-23.9 12.2-36.3 17.4-42 17.5-82.5 38.3-121.2 62.3 17.6-5.4 38-9.7 53.3.5m53.9 130.1c7.9 5.6 12.2 14.9 15.9 23.9 3.7 9.1 7.3 18.3 10.6 27.5 2.2 6 4.3 12.5 3 18.7-1.5 6.8-6.7 12.1-12 16.6-13 11-28.2 19.5-44.4 24.9 5.4 3.5 12.6 1.1 18.6-1.4 86.5-36.5 171.2-77.2 253.8-121.8 10.8-5.8 21.8-11.9 30.4-20.6 8.3-8.4 14.1-19 19.7-29.4 5.3-9.7 10.5-19.4 15.6-29.2 2.8-5.2 5.6-10.8 5.3-16.8-.2-6-3.6-11.4-6.5-16.6-6.9-12.7-11.7-27-21.9-37.3-10.1-10.2-28.5-14.6-38.7-4.3-60 61-134.5 107.8-215.5 135.4-30.4 10.3-62.3 18.2-88.9 36.2 8.7-4.3 17.6-8.7 27.1-10.5 9.5-1.9 20-.9 27.9 4.7m90.4 149c-1 7.7-6.2 14.1-11.3 19.8-12.3 13.9-29.6 27.9-47.4 22.8 10.6 9.6 27.1 6.7 40.9 2.9 64.7-17.3 128.4-38.5 190.6-63.2 10.1-4.1 17-13.5 23-22.6 9.9-15.1 19.2-30.8 27.7-46.8 6.6-12.4.8-27.6-5.3-40.3-5.5-11.7-12.8-24.7-25.5-26.9-8.6-1.5-17.2 2.5-25 6.4-62 31.2-124 62.3-186 93.4 5 11.5 9.8 23.1 14.3 34.7 2.5 6.4 4.9 13.1 4 19.8m-12.2-408c26.2-23.6 52.8-47.5 72.8-76.5-24.6 32-65.2 46.6-103.8 58.6-42.4 13.2-85.2 25.1-128.4 35.1 14.7 11.3 27.1 25.4 36.4 41.5 3.1 5.4 11.3 4.1 17.3 2C661.6 300 684.6 292 705 279c14.3-9.1 26.9-20.4 39.5-31.8m-84.7 281.9c-3.6-5.4-8.3-11.1-14.8-11.4-4-.2-7.6 1.7-11.1 3.6-12.1 6.6-24.1 13.2-36.2 19.7-6.4 3.5-8.8 11.7-8.9 19-.5 19.7 11.6 39.1 29.5 47.4 1 .5 2.2.9 3 .1 8.4-8 20.2-11 31-15.4s21.8-11.9 23.8-23.4c1.5-8.7-2.7-17.3-7.1-24.9-2.9-5-6-9.9-9.2-14.7m-162-206.2c6 9.3 11.9 18.5 17.8 27.7 2 3.2 4.2 6.5 7.5 8.3 5.6 3.1 12.6.9 18.5-1.6 18.8-7.9 36.4-18.4 52.2-31.2 1.2-1 2.5-2 3.2-3.4 1.6-3 .4-6.6-.9-9.7-4.2-9.8-10.3-19-18.8-25.2-8.6-6.2-20-9.1-30.1-5.9-5.5 1.8-10.3 5.2-14.9 8.6-11.3 8.2-22.3 16.6-33.2 25.3-1.2.9-2.4 1.9-2.6 3.3-.2 1.4.6 2.7 1.3 3.8m53.2 84.3c-1.4 7.4-2.9 14.7-4.4 22-.4 2.2-.9 4.5-.6 6.7.6 3.9 3.4 7.1 6.1 10.1 5.9 6.3 11.7 12.6 17.5 18.9 3.6 3.9 8.3 8.1 13.4 6.7 14.3-4.1 28.6-8.1 42.8-12.1 1.3-.4 2.6-.8 3.2-1.9.4-.9.3-1.9.1-2.9-4.1-23.6-13.2-48.4-33.4-61.4-2.5-1.6-5.2-3-8.1-3.2-2.1-.2-4.3.4-6.4.9-5.9 1.5-11.7 2.9-17.6 4.4-3.9 1-8.1 2.2-10.4 5.5-1.3 1.8-1.7 4.1-2.2 6.3M736.3 636c-2.1-6.1-5.2-12.6-11.1-15.3-6.4-2.9-13.9-.2-20.4 2.7-8.3 3.6-16.4 7.6-24.4 11.8-6.3 3.4-12.9 7.4-15.6 14.1-3.6 9 1.4 19.1 7.5 26.7 5.4 6.7 11.7 12.7 18.7 17.7.9-5 5.9-7.9 10.4-10.3 8-4.3 15.9-8.8 23.6-13.7 4.6-2.9 9.5-6.2 12-11.1 3.6-6.9 1.8-15.3-.7-22.6m16.3 90.2c5.2 18.8 11.5 37.4 18.7 55.6 17.6-30.6 39.5-58.8 64.8-83.5.9-.9.2-2.5-.9-3-1.1-.4-2.4-.1-3.6.2-24.3 6.5-48.6 12.9-72.9 19.4-2.2.6-4.7 1.3-6 3.3-1.5 2.3-.9 5.3-.1 8" fill="#000" stroke="none"/><path d="M780.7 498.9c1.3-1.9 4.4-1.7 6.1-.2 1.7 1.6 2.5 3.9 3.2 6.1 1.3 4.4 2.5 9.7-.6 13.1-4.8-2.6-6.9-8.3-8.6-13.5-.6-1.8-1.2-3.9-.1-5.5M557.6 42.9c1.8 6.5 3.6 13.1 5.5 19.6.1.6.3 1.3.2 1.9-.2.8-.8 1.5-1.5 1.9-3.4 2.1-8.2-.3-10-3.9-1.9-3.6-1.8-7.8-2-11.9-.1-2.7-.3-5.6 1.3-7.8s5.8-2.4 6.5.2M847.1 594.3c2.8-2 6 1.6 7.5 4.6 2.1 4.3 4.2 8.6 4.9 13.4.6 4.7-.6 10-4.2 13.1-5.4-7.6-8.8-16.6-9.6-25.9-.2-1.9-.1-4.1 1.4-5.2M710.3 81.4c4.7 7.5 8.3 15.7 10.6 24.3 2.7 10.1 3.6 20.6 4.4 31 .2 2.9.4 5.9-.8 8.5-1.3 2.5-4.7 4.3-7.2 2.9-2.6-1.5-2.6-5.2-2.5-8.3.8-18.6-5.5-37.5-17.2-52-4.9-6-11.1-12.3-10.6-20 4.6-1.3 9.7.1 13.7 2.8 4 2.8 7 6.7 9.6 10.8M748.7 391.5c2.6 5.9 5.3 12.5 3.3 18.7-17.3-17-27.2-40.3-44-57.9-4.5-4.7-9.8-10.1-8.8-16.5 6.5-.6 11.9 4.4 16.4 8.9 8.8 8.9 17.7 17.9 24.2 28.6 3.5 5.8 6.2 12 8.9 18.2M228 699.4c-9.6-3.7-19.1-8.5-26.4-15.7-6.4-6.3-10.9-14.1-15.4-21.9-12.9-22.6-26.1-46.2-27.8-72.2-.2-3.3-.2-6.9 2.1-9.4 2.2-2.4 7.2-2.2 7.9 1 4.7 19.4 9.4 38.9 17.8 56.9 8.5 18 21.1 34.6 38.4 44.4 24.3 13.8 55.5 13.1 78 29.8-25.4.8-51-3.6-74.6-12.9" fill="#000" stroke="none"/><path d="M180.9 721.1c-7.2-6.2-14.3-12.7-19-21-4-7.3-5.9-15.6-7.6-23.8-2.9-15.1-5.1-30.3-6.5-45.6-.4-5.2 0-11.9 4.9-13.8 5.2 22.4 5.5 46.2 15.2 67 10.6 22.8 31.3 39.2 52.3 53 21 13.9 43.4 26.3 60.5 44.8-7.7 3.4-16.4-.9-23.6-5.3-26.9-16.3-52.4-34.8-76.2-55.3" fill="#000" stroke="none"/></svg>

<?xml version="1.0" encoding="utf-8"?>
<!DOCTYPE svg PUBLIC "-//W3C//DTD SVG 1.1//EN" "http://www.w3.org/Graphics/SVG/1.1/DTD/svg11.dtd">

<svg version="1.1" id="Contours" xmlns="http://www.w3.org/2000/svg" xmlns:xlink="http://www.w3.org/1999/xlink" x="0px" y="0px" viewBox="0.000000 0.000000 998.946045 1053.750122" xml:space="preserve" stroke="black" fill="none" stroke-linecap='round' stroke-linejoin='round'>
<desc xmlns:shape="http://adobe.com/products/shape">
</desc>
<path d='M561.4 182.6 C554.7 169.2 555.9 152.2 564.5 139.9 C570.5 159.6 577.6 180.8 594.8 192.3 C604.4 198.8 616.2 201.3 627.7 202.9 C684.8 210.7 744.6 197.8 793.3 167.1 C819.1 150.8 844.1 123.1 836.5 93.6 C830.1 68.5 802.1 54.6 776.3 53.1 C750.4 51.6 724.9 59.0 699.1 60.6 C656.2 63.4 612.4 49.5 578.9 22.6 C574.9 26.9 570.8 31.3 566.8 35.7 C564.0 30.1 561.1 24.5 558.2 18.8 C546.3 18.6 534.4 22.0 524.4 28.4 C536.7 45.0 544.5 65.0 546.7 85.6 C527.4 75.5 512.9 56.5 508.3 35.2 C438.1 86.5 365.6 134.6 291.1 179.3 C236.7 211.9 221.3 282.2 209.9 344.6 C194.3 430.7 176.7 517.0 144.9 598.5 C113.2 680.1 66.4 757.3 0.0 814.3 C13.2 795.9 26.4 777.5 39.6 759.1 C63.3 726.0 87.0 692.8 106.0 656.9 C170.6 534.5 175.4 390.1 216.5 258.0 C222.8 237.5 230.4 216.9 244.2 200.5 C255.3 187.2 270.0 177.5 284.4 168.0 C357.7 119.7 430.9 71.4 504.2 23.1 C514.5 16.2 525.1 9.3 537.2 6.5 C565.8 0.0 593.5 18.0 620.4 29.8 C660.4 47.3 706.0 51.8 748.6 42.3 C781.8 34.9 818.8 49.8 837.4 78.2 C856.1 106.6 855.3 146.5 835.4 174.1 C871.8 166.5 912.1 183.7 931.8 215.3 C951.6 246.9 949.5 290.6 926.8 320.1 C962.7 321.5 990.9 357.2 992.5 393.1 C994.2 429.1 974.6 463.2 948.8 488.3 C981.0 496.2 998.9 534.1 993.5 566.7 C988.1 599.4 964.9 626.4 938.8 646.8 C912.8 667.2 883.1 682.8 857.3 703.5 C823.2 730.9 796.7 766.6 768.5 800.1 C681.0 904.1 573.0 990.8 452.6 1053.8 C495.7 1001.0 560.2 971.3 614.7 930.5 C649.1 904.8 679.6 874.6 710.1 844.4 C723.9 830.7 738.1 816.6 746.1 798.8 C754.0 781.1 754.6 758.6 742.3 743.5 C728.5 726.5 704.3 723.9 683.3 717.7 C662.4 711.5 639.7 694.1 644.5 672.7 C648.7 654.4 624.5 644.8 607.8 636.2 C566.3 614.6 555.4 550.8 587.5 516.7 C573.0 506.4 558.4 496.0 543.9 485.6 C532.3 540.8 526.8 597.2 527.4 653.6 C527.8 682.7 528.2 715.8 506.9 735.6 C515.8 621.1 524.8 506.5 533.8 391.9 C526.8 434.2 519.8 476.5 512.9 518.8 C496.8 491.4 510.9 457.1 513.2 425.4 C518.0 360.9 472.3 303.8 423.3 261.4 C455.0 280.0 494.7 260.7 526.1 241.7 C547.8 228.6 572.9 205.3 561.4 182.6 M612.4 376.1 C618.8 380.4 623.5 386.8 627.7 393.3 C636.1 406.5 643.1 420.8 648.2 435.7 C650.5 442.3 652.5 449.4 651.3 456.4 C650.2 463.4 645.1 470.2 638.1 471.1 C727.0 459.6 805.7 409.1 877.2 355.0 C887.1 347.6 897.0 339.9 904.8 330.3 C919.4 312.3 925.5 289.1 931.2 266.6 C932.9 260.3 934.5 253.7 933.5 247.3 C932.4 240.9 928.9 235.3 925.4 229.9 C920.2 221.9 914.7 214.1 909.0 206.5 C905.2 201.4 901.1 196.3 895.6 193.0 C888.5 188.8 879.9 188.2 871.6 187.7 C857.0 186.8 841.7 186.1 828.7 192.8 C821.4 196.6 815.4 202.5 809.5 208.2 C788.9 228.6 768.2 248.9 747.6 269.3 C737.9 278.8 728.1 288.5 716.6 295.9 C705.3 303.2 692.7 308.1 680.3 313.3 C638.3 330.8 597.8 351.6 559.1 375.6 C576.7 370.2 597.1 365.9 612.4 376.1 M666.3 506.2 C674.2 511.8 678.5 521.1 682.2 530.1 C685.9 539.2 689.5 548.4 692.8 557.6 C695.0 563.6 697.1 570.1 695.8 576.3 C694.3 583.1 689.1 588.4 683.8 592.9 C670.8 603.9 655.6 612.4 639.4 617.8 C644.8 621.3 652.0 618.9 658.0 616.4 C744.5 579.9 829.2 539.2 911.8 494.6 C922.6 488.8 933.6 482.7 942.2 474.0 C950.5 465.6 956.3 455.0 961.9 444.6 C967.2 434.9 972.4 425.2 977.5 415.4 C980.3 410.2 983.1 404.6 982.8 398.6 C982.6 392.6 979.2 387.2 976.3 382.0 C969.4 369.3 964.6 355.0 954.4 344.7 C944.3 334.5 925.9 330.1 915.7 340.4 C855.7 401.4 781.2 448.2 700.2 475.8 C669.8 486.1 637.9 494.0 611.3 512.0 C620.0 507.7 628.9 503.3 638.4 501.5 C647.9 499.6 658.4 500.6 666.3 506.2 M756.7 655.2 C755.7 662.9 750.5 669.3 745.4 675.0 C733.1 688.9 715.8 702.9 698.0 697.8 C708.6 707.4 725.1 704.5 738.9 700.7 C803.6 683.4 867.3 662.2 929.5 637.5 C939.6 633.4 946.5 624.0 952.5 614.9 C962.4 599.8 971.7 584.1 980.2 568.1 C986.8 555.7 981.0 540.5 974.9 527.8 C969.4 516.1 962.1 503.1 949.4 500.9 C940.8 499.4 932.2 503.4 924.4 507.3 C862.4 538.5 800.4 569.6 738.4 600.7 C743.4 612.2 748.2 623.8 752.7 635.4 C755.2 641.8 757.6 648.5 756.7 655.2 M744.5 247.2 C770.7 223.6 797.3 199.7 817.3 170.7 C792.7 202.7 752.1 217.3 713.5 229.3 C671.1 242.5 628.3 254.4 585.1 264.4 C599.8 275.7 612.2 289.8 621.5 305.9 C624.6 311.3 632.8 310.0 638.8 307.9 C661.6 300.0 684.6 292.0 705.0 279.0 C719.3 269.9 731.9 258.6 744.5 247.2 M659.8 529.1 C656.2 523.7 651.5 518.0 645.0 517.7 C641.0 517.5 637.4 519.4 633.9 521.3 C621.8 527.9 609.8 534.5 597.7 541.0 C591.3 544.5 588.9 552.7 588.8 560.0 C588.3 579.7 600.4 599.1 618.3 607.4 C619.3 607.9 620.5 608.3 621.3 607.5 C629.7 599.5 641.5 596.5 652.3 592.1 C663.1 587.7 674.1 580.2 676.1 568.7 C677.6 560.0 673.4 551.4 669.0 543.8 C666.1 538.8 663.0 533.9 659.8 529.1 M497.8 322.9 C503.8 332.2 509.7 341.4 515.6 350.6 C517.6 353.8 519.8 357.1 523.1 358.9 C528.7 362.0 535.7 359.8 541.6 357.3 C560.4 349.4 578.0 338.9 593.8 326.1 C595.0 325.1 596.3 324.1 597.0 322.7 C598.6 319.7 597.4 316.1 596.1 313.0 C591.9 303.2 585.8 294.0 577.3 287.8 C568.7 281.6 557.3 278.7 547.2 281.9 C541.7 283.7 536.9 287.1 532.3 290.5 C521.0 298.7 510.0 307.1 499.1 315.8 C497.9 316.7 496.7 317.7 496.5 319.1 C496.3 320.5 497.1 321.8 497.8 322.9 M551.0 407.2 C549.6 414.6 548.1 421.9 546.6 429.2 C546.2 431.4 545.7 433.7 546.0 435.9 C546.6 439.8 549.4 443.0 552.1 446.0 C558.0 452.3 563.8 458.6 569.6 464.9 C573.2 468.8 577.9 473.0 583.0 471.6 C597.3 467.5 611.6 463.5 625.8 459.5 C627.1 459.1 628.4 458.7 629.0 457.6 C629.4 456.7 629.3 455.7 629.1 454.7 C625.0 431.1 615.9 406.3 595.7 393.3 C593.2 391.7 590.5 390.3 587.6 390.1 C585.5 389.9 583.3 390.5 581.2 391.0 C575.3 392.5 569.5 393.9 563.6 395.4 C559.7 396.4 555.5 397.6 553.2 400.9 C551.9 402.7 551.5 405.0 551.0 407.2 M736.3 636.0 C734.2 629.9 731.1 623.4 725.2 620.7 C718.8 617.8 711.3 620.5 704.8 623.4 C696.5 627.0 688.4 631.0 680.4 635.2 C674.1 638.6 667.5 642.6 664.8 649.3 C661.2 658.3 666.2 668.4 672.3 676.0 C677.7 682.7 684.0 688.7 691.0 693.7 C691.9 688.7 696.9 685.8 701.4 683.4 C709.4 679.1 717.3 674.6 725.0 669.7 C729.6 666.8 734.5 663.5 737.0 658.6 C740.6 651.7 738.8 643.3 736.3 636.0 M752.6 726.2 C757.8 745.0 764.1 763.6 771.3 781.8 C788.9 751.2 810.8 723.0 836.1 698.3 C837.0 697.4 836.3 695.8 835.2 695.3 C834.1 694.9 832.8 695.2 831.6 695.5 C807.3 702.0 783.0 708.4 758.7 714.9 C756.5 715.5 754.0 716.2 752.7 718.2 C751.2 720.5 751.8 723.5 752.6 726.2 ' fill ="#000000" stroke="none"/>
<path d='M780.7 498.9 C782.0 497.0 785.1 497.2 786.8 498.7 C788.5 500.3 789.3 502.6 790.0 504.8 C791.3 509.2 792.5 514.5 789.4 517.9 C784.6 515.3 782.5 509.6 780.8 504.4 C780.2 502.6 779.6 500.5 780.7 498.9 ' fill ="#000000" stroke="none"/>
<path d='M557.6 42.9 C559.4 49.4 561.2 56.0 563.1 62.5 C563.2 63.1 563.4 63.8 563.3 64.4 C563.1 65.2 562.5 65.9 561.8 66.3 C558.4 68.4 553.6 66.0 551.8 62.4 C549.9 58.8 550.0 54.6 549.8 50.5 C549.7 47.8 549.5 44.9 551.1 42.7 C552.7 40.5 556.9 40.3 557.6 42.9 ' fill ="#000000" stroke="none"/>
<path d='M847.1 594.3 C849.9 592.3 853.1 595.9 854.6 598.9 C856.7 603.2 858.8 607.5 859.5 612.3 C860.1 617.0 858.9 622.3 855.3 625.4 C849.9 617.8 846.5 608.8 845.7 599.5 C845.5 597.6 845.6 595.4 847.1 594.3 ' fill ="#000000" stroke="none"/>
<path d='M710.3 81.4 C715.0 88.9 718.6 97.1 720.9 105.7 C723.6 115.8 724.5 126.3 725.3 136.7 C725.5 139.6 725.7 142.6 724.5 145.2 C723.2 147.7 719.8 149.5 717.3 148.1 C714.7 146.6 714.7 142.9 714.8 139.8 C715.6 121.2 709.3 102.3 697.6 87.8 C692.7 81.8 686.5 75.5 687.0 67.8 C691.6 66.5 696.7 67.9 700.7 70.6 C704.7 73.4 707.7 77.3 710.3 81.4 ' fill ="#000000" stroke="none"/>
<path d='M748.7 391.5 C751.3 397.4 754.0 404.0 752.0 410.2 C734.7 393.2 724.8 369.9 708.0 352.3 C703.5 347.6 698.2 342.2 699.2 335.8 C705.7 335.2 711.1 340.2 715.6 344.7 C724.4 353.6 733.3 362.6 739.8 373.3 C743.3 379.1 746.0 385.3 748.7 391.5 ' fill ="#000000" stroke="none"/>
<path d='M228.0 699.4 C218.4 695.7 208.9 690.9 201.6 683.7 C195.2 677.4 190.7 669.6 186.2 661.8 C173.3 639.2 160.1 615.6 158.4 589.6 C158.2 586.3 158.2 582.7 160.5 580.2 C162.7 577.8 167.7 578.0 168.4 581.2 C173.1 600.6 177.8 620.1 186.2 638.1 C194.7 656.1 207.3 672.7 224.6 682.5 C248.9 696.3 280.1 695.6 302.6 712.3 C277.2 713.1 251.6 708.7 228.0 699.4 ' fill ="#000000" stroke="none"/>
<path d='M180.9 721.1 C173.7 714.9 166.6 708.4 161.9 700.1 C157.9 692.8 156.0 684.5 154.3 676.3 C151.4 661.2 149.2 646.0 147.8 630.7 C147.4 625.5 147.8 618.8 152.7 616.9 C157.9 639.3 158.2 663.1 167.9 683.9 C178.5 706.7 199.2 723.1 220.2 736.9 C241.2 750.8 263.6 763.2 280.7 781.7 C273.0 785.1 264.3 780.8 257.1 776.4 C230.2 760.1 204.7 741.6 180.9 721.1 ' fill ="#000000" stroke="none"/>

</svg>
